assets/img/braze_icons/mouse.svg

<svg fill="none" height="24" viewBox="0 0 24 24" width="24" xmlns="http://www.w3.org/2000/svg"><path clip-rule="evenodd" d="m12 1c-4.41828 0-8 3.58172-8 8v6c0 4.4183 3.58172 8 8 8 4.4183 0 8-3.5817 8-8v-6c0-4.41828-3.5817-8-8-8zm1 5c0-.55228-.4477-1-1-1s-1 .44772-1 1v3c0 .55228.4477 1 1 1s1-.44772 1-1z" fill="#801ed7" fill-rule="evenodd"/></svg>

<svg width="24" height="24" viewBox="0 0 24 24" fill="none" xmlns="http://www.w3.org/2000/svg">
<path fill-rule="evenodd" clip-rule="evenodd" d="M12 1C7.58172 1 4 4.58172 4 9V15C4 19.4183 7.58172 23 12 23C16.4183 23 20 19.4183 20 15V9C20 4.58172 16.4183 1 12 1ZM13 6C13 5.44772 12.5523 5 12 5C11.4477 5 11 5.44772 11 6V9C11 9.55228 11.4477 10 12 10C12.5523 10 13 9.55228 13 9V6Z" fill="#801ED7"/>
</svg>
